X:5708
T:Russian 2-step (1)
O:england
R:2-Step
M:4/4
B:Free Reed Book
K:GMix
g2z2 B2d2 | cBcA B2G2 | D2G2B2d2 | cBcA B2G2 |\
g2z2 B2d2 | cBcA B2G2 | D2G2B2d2 | dcBA G4 :|
K:C
|:\
G2c2 e4 | defd e2c2 | efg2 g2gb | gfed e2c2 |\
G2c2 e4 | defd e2c2 | g2gb g2f2 | e2d2 c4 :|
